X: 02127
T: TELL 'EM I SHAN'T!
C: Bob McQuillen Apr'74
B: Bob's Note Book 1&2 #127
%R: jig
Z: 2019 John Chambers <jc:trillian.mit.edu>
M: 6/8
L: 1/8
K: A
cB \
| A2c c2e/e/ | e2a a2e | fga edc | BcA GFE |\
| A2c c2e/e/ | e2a a2e | fga edc | BAG A  :|
|: ee \
| e2c ccd | cAA A2E | Ace edc | dBB Bee |\
| ecc c2d | cAA A2E | Ace edc | BAG A  :|
%%begintext align
%% For Mark Schaal,
%% with Happy Memories!
%%endtext
